svg/icon/sin.svg

<?xml version="1.0" encoding="UTF-8"?>
<svg width="32px" height="32px" viewBox="0 0 32 32" version="1.1" xmlns="http://www.w3.org/2000/svg" xmlns:xlink="http://www.w3.org/1999/xlink">
    <title>svg/icon/sin</title>
    <defs>
        <linearGradient x1="50%" y1="0%" x2="50%" y2="100%" id="linearGradient-1">
            <stop stop-color="#FFFFFF" stop-opacity="0.5" offset="0%"></stop>
            <stop stop-color="#000000" stop-opacity="0.5" offset="100%"></stop>
        </linearGradient>
        <circle id="path-2" cx="16" cy="15" r="15"></circle>
        <filter x="-5.8%" y="-4.2%" width="111.7%" height="111.7%" filterUnits="objectBoundingBox" id="filter-3">
            <feOffset dx="0" dy="0.5" in="SourceAlpha" result="shadowOffsetOuter1"></feOffset>
            <feGaussianBlur stdDeviation="0.5" in="shadowOffsetOuter1" result="shadowBlurOuter1"></feGaussianBlur>
            <feComposite in="shadowBlurOuter1" in2="SourceAlpha" operator="out" result="shadowBlurOuter1"></feComposite>
            <feColorMatrix values="0 0 0 0 0   0 0 0 0 0   0 0 0 0 0  0 0 0 0.199473505 0" type="matrix" in="shadowBlurOuter1"></feColorMatrix>
        </filter>
        <filter id="filter-4">
            <feColorMatrix in="SourceGraphic" type="matrix" values="0 0 0 0 1.000000 0 0 0 0 1.000000 0 0 0 0 1.000000 0 0 0 1.000000 0"></feColorMatrix>
        </filter>
        <filter x="-18.8%" y="-18.8%" width="137.5%" height="137.5%" filterUnits="objectBoundingBox" id="filter-5">
            <feOffset dx="0" dy="0.5" in="SourceAlpha" result="shadowOffsetOuter1"></feOffset>
            <feGaussianBlur stdDeviation="0.5" in="shadowOffsetOuter1" result="shadowBlurOuter1"></feGaussianBlur>
            <feColorMatrix values="0 0 0 0 0   0 0 0 0 0   0 0 0 0 0  0 0 0 0.204257246 0" type="matrix" in="shadowBlurOuter1" result="shadowMatrixOuter1"></feColorMatrix>
            <feMerge>
                <feMergeNode in="shadowMatrixOuter1"></feMergeNode>
                <feMergeNode in="SourceGraphic"></feMergeNode>
            </feMerge>
        </filter>
    </defs>
    <g id="icon/sin" stroke="none" stroke-width="1" fill="none" fill-rule="evenodd">
        <g id="Combined-Shape">
            <use fill="black" fill-opacity="1" filter="url(#filter-3)" xlink:href="#path-2"></use>
            <use fill="#F5342E" fill-rule="evenodd" xlink:href="#path-2"></use>
            <use fill="url(#linearGradient-1)" fill-rule="evenodd" style="mix-blend-mode: soft-light;" xlink:href="#path-2"></use>
            <circle stroke-opacity="0.0970052083" stroke="#000000" stroke-width="1" stroke-linejoin="square" cx="16" cy="15" r="14.5"></circle>
        </g>
        <g filter="url(#filter-4)" id="sinovate">
            <g filter="url(#filter-5)" transform="translate(6.000000, 5.000000)">
                <path d="M0.00137278706,10.1238117 C-0.00339227531,8.94601511 0.167716782,7.87996732 0.508202148,6.84274361 C0.906734636,5.62858435 1.51319712,4.53326902 2.32282453,3.55591073 C3.25807632,2.42644994 4.38263104,1.55019767 5.69345638,0.926710486 C6.56329685,0.512973967 7.47429014,0.239366858 8.42470349,0.102785028 C8.99564459,0.0207472399 9.56875164,-0.0160589028 10.1444578,0.00655691984 C11.2685793,0.0504582225 12.3567463,0.277946791 13.4037605,0.701882603 C13.4197884,0.708534315 13.4358163,0.715186028 13.4514111,0.722724636 C13.4670058,0.730263243 13.4864993,0.737358403 13.488232,0.756870093 C13.490398,0.782590048 13.4670058,0.791015551 13.4483788,0.798554158 C13.328819,0.845559594 13.2088261,0.891678134 13.0888332,0.938683569 C12.305197,1.24554924 11.5375888,1.5896645 10.7916399,1.98344588 C9.964685,2.41979823 9.17065234,2.91025116 8.43423361,3.49471497 C7.79354932,4.0037927 7.20874621,4.57007516 6.73397272,5.24766295 C6.41428035,5.70352698 6.16173205,6.19442336 6.02354524,6.74075069 C5.84810431,7.43297224 5.89142306,8.11809863 6.09112249,8.7974602 C6.23840623,9.29944277 6.45933185,9.76861023 6.70278322,10.2275784 C7.01077953,10.8076077 7.36036183,11.3623606 7.68135376,11.9339644 C7.97332212,12.4541283 8.24493068,12.984935 8.42470349,13.5591995 C8.55032786,13.960076 8.62526929,14.3707084 8.61703873,14.7933139 C8.60577586,15.3498405 8.45935848,15.8704479 8.20464424,16.3604573 C7.90184619,16.9435908 7.48728576,17.436261 7.02464153,17.8903512 C6.59838504,18.3085222 6.13400805,18.6783574 5.65533588,19.0308982 C5.58559269,19.0823381 5.52971151,19.079234 5.45650282,19.0419844 C4.7577714,18.6872264 4.1105893,18.2526478 3.51235737,17.7409094 C2.79023383,17.1223002 2.16860979,16.4105669 1.6453193,15.6097007 C1.21992919,14.9582763 0.873812387,14.2651679 0.60783527,13.5299319 C0.342724527,12.798687 0.16468447,12.0452697 0.0715491601,11.2714538 C0.022598974,10.8634821 -0.00685777521,10.4528497 0.00137278706,10.1238117 Z" id="Path" fill="#FFFFFF" fill-rule="nonzero"></path>
                <path d="M6.04651163,19.2412876 C6.06531626,19.1978261 6.10964145,19.1969391 6.14411661,19.1845216 C6.84257425,18.9273006 7.53073411,18.6452444 8.20411892,18.3285965 C8.99436106,17.9569564 9.76266446,17.5454028 10.49112,17.0642221 C11.0579452,16.6899212 11.5979067,16.2810284 12.0917521,15.8140392 C12.5788815,15.3532588 13.0109402,14.8499039 13.3471849,14.2698261 C13.6194043,13.800176 13.8029733,13.298595 13.8625213,12.7584309 C13.9171442,12.2626152 13.8616258,11.7747822 13.7259638,11.2953755 C13.5759745,10.7662984 13.3413644,10.2727002 13.0772041,9.79151946 C12.7606596,9.2145461 12.4024762,8.66196439 12.0711565,8.09386072 C11.7899825,7.61090608 11.5280609,7.11863827 11.337776,6.59222214 C11.1519683,6.07822359 11.0588407,5.55047701 11.099584,5.00410408 C11.1268955,4.63335102 11.2227096,4.27767644 11.3718034,3.93619336 C11.595668,3.4221948 11.9193763,2.97338847 12.2941257,2.55873044 C12.8416986,1.95248711 13.4788173,1.44824521 14.1427998,0.974603741 C14.2157796,0.922272568 14.2766708,0.916063784 14.3581576,0.95686436 C15.0637789,1.31120849 15.7241795,1.73296227 16.3330913,2.23409977 C16.9558827,2.74676788 17.5101715,3.32329775 17.9923759,3.96723727 C18.8694775,5.1380364 19.4663006,6.43522862 19.7725475,7.86280529 C19.8670183,8.30407239 19.9332823,8.74888736 19.965071,9.19902415 C19.9874575,9.51389815 20.0067099,9.82921565 19.9977553,10.1449766 C19.9713392,11.0674244 19.8370205,11.9730198 19.5661443,12.8582149 C19.2697475,13.8263416 18.8363456,14.7292761 18.266834,15.5683488 C17.8414912,16.1949924 17.3503322,16.7675309 16.793357,17.28286 C16.1463882,17.8815641 15.4336032,18.3906843 14.6532111,18.8062293 C13.7085024,19.3091407 12.7082752,19.6532847 11.6534251,19.8422091 C11.2482301,19.9149406 10.8390056,19.9584021 10.4275424,19.9827937 C10.1517412,19.9992026 9.87638769,20.004081 9.6010342,19.9965417 C8.71990302,19.973037 7.85533783,19.8404352 7.0086818,19.5947448 C6.7163146,19.5100392 6.42842468,19.4133596 6.14545979,19.3016015 C6.10919372,19.2860795 6.06665944,19.2816447 6.04651163,19.2412876 Z" id="Path" fill="#FFFFFF" fill-rule="nonzero"></path>
            </g>
        </g>
    </g>
</svg>

<svg width="32" height="32" viewBox="0 0 32 32" xmlns="http://www.w3.org/2000/svg" xmlns:xlink="http://www.w3.org/1999/xlink"><defs><filter x="-5.8%" y="-4.2%" width="111.7%" height="111.7%" filterUnits="objectBoundingBox" id="a"><feOffset dy=".5" in="SourceAlpha" result="shadowOffsetOuter1"/><feGaussianBlur stdDeviation=".5" in="shadowOffsetOuter1" result="shadowBlurOuter1"/><feComposite in="shadowBlurOuter1" in2="SourceAlpha" operator="out" result="shadowBlurOuter1"/><feColorMatrix values="0 0 0 0 0 0 0 0 0 0 0 0 0 0 0 0 0 0 0.199473505 0" in="shadowBlurOuter1"/></filter><filter id="d"><feColorMatrix in="SourceGraphic" values="0 0 0 0 1.000000 0 0 0 0 1.000000 0 0 0 0 1.000000 0 0 0 1.000000 0"/></filter><filter x="-18.8%" y="-18.8%" width="137.5%" height="137.5%" filterUnits="objectBoundingBox" id="e"><feOffset dy=".5" in="SourceAlpha" result="shadowOffsetOuter1"/><feGaussianBlur stdDeviation=".5" in="shadowOffsetOuter1" result="shadowBlurOuter1"/><feColorMatrix values="0 0 0 0 0 0 0 0 0 0 0 0 0 0 0 0 0 0 0.204257246 0" in="shadowBlurOuter1" result="shadowMatrixOuter1"/><feMerge><feMergeNode in="shadowMatrixOuter1"/><feMergeNode in="SourceGraphic"/></feMerge></filter><linearGradient x1="50%" y1="0%" x2="50%" y2="100%" id="c"><stop stop-color="#FFF" stop-opacity=".5" offset="0%"/><stop stop-opacity=".5" offset="100%"/></linearGradient><circle id="b" cx="16" cy="15" r="15"/></defs><g fill="none" fill-rule="evenodd"><use fill="#000" filter="url(#a)" xlink:href="#b"/><use fill="#F5342E" xlink:href="#b"/><use fill="url(#c)" style="mix-blend-mode:soft-light" xlink:href="#b"/><circle stroke-opacity=".097" stroke="#000" stroke-linejoin="square" cx="16" cy="15" r="14.5"/><g filter="url(#d)"><g filter="url(#e)" transform="translate(6 5)" fill="#FFF" fill-rule="nonzero"><path d="M.001 10.124a10.195 10.195 0 01.507-3.281 9.995 9.995 0 011.815-3.287 9.788 9.788 0 013.37-2.63A9.454 9.454 0 018.425.104a9.46 9.46 0 011.72-.096 9.62 9.62 0 013.306.716c.016.007.035.014.037.034.002.026-.021.034-.04.042l-.36.14a22.43 22.43 0 00-2.296 1.044c-.827.437-1.621.927-2.358 1.512-.64.509-1.225 1.075-1.7 1.753-.32.456-.572.946-.71 1.493-.176.692-.133 1.377.067 2.056.147.502.368.972.612 1.43.308.58.657 1.135.978 1.707.292.52.564 1.05.744 1.625.125.401.2.812.192 1.234a3.516 3.516 0 01-.412 1.567c-.303.584-.718 1.076-1.18 1.53-.427.419-.891.788-1.37 1.14-.07.052-.125.05-.198.012a9.824 9.824 0 01-1.945-1.301 9.974 9.974 0 01-1.867-2.131 10.172 10.172 0 01-1.574-4.338 8.418 8.418 0 01-.07-1.148z"/><path d="M6.047 19.241c.018-.043.063-.044.097-.056a25.73 25.73 0 002.06-.856c.79-.372 1.559-.784 2.287-1.265a11.678 11.678 0 001.6-1.25c.488-.46.92-.964 1.256-1.544.272-.47.456-.971.516-1.512a3.812 3.812 0 00-.137-1.463c-.15-.529-.385-1.022-.649-1.503-.316-.577-.675-1.13-1.006-1.698-.281-.483-.543-.975-.733-1.502a3.8 3.8 0 01-.238-1.588c.027-.37.123-.726.272-1.068.224-.514.547-.963.922-1.377.548-.607 1.185-1.11 1.849-1.584.073-.053.134-.059.215-.018.706.354 1.366.776 1.975 1.277.623.513 1.177 1.09 1.66 1.733A9.886 9.886 0 0119.964 9.2c.022.315.042.63.033.946a10.24 10.24 0 01-.432 2.713 10.025 10.025 0 01-2.773 4.425 10.194 10.194 0 01-5.14 2.56 10.422 10.422 0 01-2.052.154 10.244 10.244 0 01-3.456-.695c-.036-.016-.078-.02-.098-.06z"/></g></g></g></svg>
